X:150
T:Blarney Pilgrim, The
C:Joe Buchanan's Scottish Tome - Page 258.1
I:258 1
Z:Carl Allison
R:Jig
L:1/8
M:6/8
K:G
DED DEG | A2 G ABc | BAG AGE | GEA GED | DED DEG | A2 G ABc | BAG AGE | GED D2 z :|
ded dBG | AGA BGE | ded dBG | AGA G3 | g2 e dBG | AGA BGE | B2 G AGE | GAG G2 z :|
G2 D B2 D | A2 D ABc | BAG AGE | GEA GED | A2 D B2 D | A2 D ABc | BAG AGE | GED D2 z :|

